!!!!SEGMENT: Ver3030-Ultimi_mei_sospiri.krn
!!!id: Ver3030
!!!AGN: Madrigal
!!!SCT: Slim (1972)
!!!voices: 6
!!!COM: Philippe Verdelot
!!!OTL: Ultimi mei sospiri
**kern	**kern	**kern	**kern	**kern	**kern
*part6	*part5	*part4	*part3	*part2	*part1
*staff6	*staff5	*staff4	*staff3	*staff2	*staff1
*I"Bassus II	*I"Bassus I	*I"Tenor II	*I"Tenor I	*I"Altus	*I"Superius
*I'B. II	*I'B. I	*I'T. II	*I'T. I	*I'A	*I'S
*clefF4	*clefF4	*clefGv2	*clefGv2	*clefGv2	*clefG2
*k[b-]	*k[b-]	*k[b-]	*k[b-]	*k[b-]	*k[b-]
*F:	*F:	*F:	*F:	*F:	*F:
*M2/1	*M2/1	*M2/1	*M2/1	*M2/1	*M2/1
*met(C|)	*met(C|)	*met(C|)	*met(C|)	*met(C|)	*met(C|)
=1	=1	=1	=1	=1	=1
0r	0r	0r	0r	0G	0g
=2	=2	=2	=2	=2	=2
0r	0r	0G	0r	1.g	1.b-y
.	.	.	.	2g	2b-y
=3	=3	=3	=3	=3	=3
0r	0r	1.d	0r	1f	1a
.	.	.	.	1d	1f
.	.	2d	.	.	.
=4	=4	=4	=4	=4	=4
0r	1r	1c	0r	1e	1g
.	1D	1A	.	[1d	[1a
=5	=5	=5	=5	=5	=5
0GG	1.G	0B-y	0d	1d]	2a]
.	.	.	.	.	4g
.	.	.	.	.	4f
.	.	.	.	1r	1g
.	2G	.	.	.	.
=6	=6	=6	=6	=6	=6
1.D	1F	1A	1.f	0r	0a
.	1D	1F	.	.	.
2D	.	.	2f	.	.
=7	=7	=7	=7	=7	=7
1C	0E	1G	1e	0r	0r
1AA	.	[1A	1c	.	.
=8	=8	=8	=8	=8	=8
0BB-y	1D	2A]	0d	0r	0r
.	.	4G	.	.	.
.	.	4F	.	.	.
.	2r	2.G	.	.	.
.	2D	.	.	.	.
.	.	4D	.	.	.
=9	=9	=9	=9	=9	=9
0AA	1.A	0E	0c	1r	2r
.	.	.	.	.	2e
.	.	.	.	1A	[1a
.	2G	.	.	.	.
=10	=10	=10	=10	=10	=10
0r	2.F	0D	0r	1.d	2a]
.	.	.	.	.	2g
.	4E	.	.	.	.
.	2D	.	.	.	2.f
.	2D	.	.	2c	.
.	.	.	.	.	4e
=11	=11	=11	=11	=11	=11
0r	2.G	0r	0r	2.B-y	2d
.	.	.	.	.	2d
.	4F	.	.	4A	.
.	1E-X	.	.	2G	[1g
.	.	.	.	[2B-y	.
=12	=12	=12	=12	=12	=12
1r	1D	2r	0r	4B-]	2g]
.	.	.	.	4c	.
.	.	2D	.	1d	2f
1AA	1r	[1A	.	.	1e
.	.	.	.	2c#i	.
=13	=13	=13	=13	=13	=13
1.D	0r	2A]	1A	1d	0d
.	.	2G	.	.	.
.	.	2.F	[1d	1A	.
2C	.	.	.	.	.
.	.	4E	.	.	.
=14	=14	=14	=14	=14	=14
2.BB-y	1r	2D	2d]	0r	0r
.	.	2D	2c	.	.
4AA	.	.	.	.	.
2GG	1D	2.G	2.B-y	.	.
2GG	.	.	.	.	.
.	.	4F	4A	.	.
=15	=15	=15	=15	=15	=15
2.C	1E	4E	2G	0r	0r
.	.	4D	.	.	.
.	.	2.G	2G	.	.
4BB-y	.	.	.	.	.
1AA	1C	.	[1c	.	.
.	.	8F#iL	.	.	.
.	.	8EJ	.	.	.
.	.	2F#i	.	.	.
=16	=16	=16	=16	=16	=16
1GG	0D	1G	2c]	1r	1r
.	.	.	2B-y	.	.
1r	.	1r	1A	1f	1a
=17	=17	=17	=17	=17	=17
0r	0GG	0G	1G	1.g	1.b-y
.	.	.	1r	.	.
.	.	.	.	2g	2b-y
=18	=18	=18	=18	=18	=18
0r	0r	1.d	0r	1f	1a
.	.	.	.	1d	1f
.	.	2d	.	.	.
=19	=19	=19	=19	=19	=19
0r	1r	1c	0r	1e	1g
.	1D	1A	.	[1d	[1a
=20	=20	=20	=20	=20	=20
0GG	1.G	0B-y	0d	1d]	2a]
.	.	.	.	.	4g
.	.	.	.	.	4f
.	.	.	.	1r	1g
.	2G	.	.	.	.
=21	=21	=21	=21	=21	=21
1.D	1F	1A	1.f	0r	0a
.	1D	1F	.	.	.
2D	.	.	2f	.	.
=22	=22	=22	=22	=22	=22
1C	0E	1G	1e	0r	0r
1AA	.	[1A	1c	.	.
=23	=23	=23	=23	=23	=23
0BB-y	1D	2.A]	0d	0r	0r
.	.	4G	.	.	.
.	2r	4F	.	.	.
.	.	2G	.	.	.
.	2D	.	.	.	.
.	.	4D	.	.	.
=24	=24	=24	=24	=24	=24
0AA	1.A	0E	0c	1r	2r
.	.	.	.	.	2e
.	.	.	.	1A	[1a
.	2G	.	.	.	.
=25	=25	=25	=25	=25	=25
0r	2.F	1D	0r	1.d	2a]
.	.	.	.	.	2g
.	4E	.	.	.	.
.	2D	1r	.	.	2.f
.	2D	.	.	2c	.
.	.	.	.	.	4e
=26	=26	=26	=26	=26	=26
0r	2.G	0r	0r	2.B-y	2d
.	.	.	.	.	2d
.	4F	.	.	4A	.
.	1E-X	.	.	2G	[1g
.	.	.	.	[2B-y	.
=27	=27	=27	=27	=27	=27
1r	1D	2r	0r	4B-]	2g]
.	.	.	.	4c	.
.	.	2D	.	2.d	2f
1AA	1r	[1A	.	.	1e
.	.	.	.	8c#iL	.
.	.	.	.	8BniJ	.
.	.	.	.	2c#i	.
=28	=28	=28	=28	=28	=28
1.D	0r	2A]	1A	1d	0d
.	.	2G	.	.	.
.	.	2.F	[1d	1A	.
2C	.	.	.	.	.
.	.	4E	.	.	.
=29	=29	=29	=29	=29	=29
2.BB-y	1r	2D	2d]	0r	0r
.	.	2D	2c	.	.
4AA	.	.	.	.	.
2GG	1D	2.G	2.B-y	.	.
2GG	.	.	.	.	.
.	.	4F	4A	.	.
=30	=30	=30	=30	=30	=30
2.C	1E	4E	2G	0r	0r
.	.	4D	.	.	.
.	.	2.G	2G	.	.
4BB-y	.	.	.	.	.
1AA	1C	.	[1c	.	.
.	.	8F#iL	.	.	.
.	.	8EJ	.	.	.
.	.	2F#i	.	.	.
=31	=31	=31	=31	=31	=31
1GG	0D	1G	2c]	2r	1r
.	.	.	2B-y	1g	.
1r	.	2r	1A	.	[1dd
.	.	[2d	.	2f	.
=32	=32	=32	=32	=32	=32
0r	2GG	2d]	1G	0g	1dd]
.	1G	2d	.	.	.
.	.	1e	1r	.	1b-y
.	2G	.	.	.	.
=33	=33	=33	=33	=33	=33
1r	1A	2c	0r	2e	1cc
.	.	2.f	.	2c	.
2r	2F	.	.	1d	2a
.	.	4e	.	.	.
[2G	2G	[2d	.	.	2b-y
=34	=34	=34	=34	=34	=34
2G]	1E	2d]	1r	1e	1g
2G	.	2c	.	.	.
1A	1D	2.d	2r	2r	1f
.	.	.	[2d	[2f	.
.	.	4c	.	.	.
=35	=35	=35	=35	=35	=35
2F	0r	2A	2d]	4f]	0r
.	.	.	.	4e	.
2G	.	2B-y	2d	1d	.
1E	.	1G	2e	.	.
.	.	.	[2g	2c#i	.
=36	=36	=36	=36	=36	=36
0D	2r	0A	2g]	2d	1r
.	2A	.	2.f	2d	.
.	2A	.	.	2f	1a
.	.	.	4e	.	.
.	2A	.	[2d	2f	.
=37	=37	=37	=37	=37	=37
0r	1A	0r	2d]	2e	2a
.	.	.	2c#i	2e	2a
.	2r	.	1d	2.f	1a
.	2F	.	.	.	.
.	.	.	.	4e	.
=38	=38	=38	=38	=38	=38
0r	2.B-y	0r	0r	4d	2f
.	.	.	.	4c	.
.	.	.	.	1d	1b-y
.	4A	.	.	.	.
.	2G	.	.	.	.
.	2F	.	.	2f	2a
=39	=39	=39	=39	=39	=39
0r	1G	0r	0r	2e	2.g
.	.	.	.	2.d	.
.	.	.	.	.	4f
.	[1A	.	.	.	1e
.	.	.	.	8c#iL	.
.	.	.	.	8BniJ	.
.	.	.	.	2c#i	.
=40	=40	=40	=40	=40	=40
1D	0A_	2r	1r	1d	0d
.	.	2F	.	.	.
2D	.	2F	1d	1r	.
2D	.	2F	.	.	.
=41	=41	=41	=41	=41	=41
1D	1A]	2F	2d	0r	0r
.	.	2F	2d	.	.
2r	1r	2.B-y	1d	.	.
2BB-y	.	.	.	.	.
.	.	4A	.	.	.
=42	=42	=42	=42	=42	=42
2.E-i	0r	4G	2B-y	2r	0r
.	.	4F	.	.	.
.	.	1G	1e-i	2B-y	.
4D	.	.	.	.	.
2C	.	.	.	2c	.
2BB-y	.	2B-y	2d	2d	.
=43	=43	=43	=43	=43	=43
1C	0r	2A	2.c	1e-i	0r
.	.	2.G	.	.	.
.	.	.	4B-y	.	.
1D	.	.	1A	[1d	.
.	.	8F#iL	.	.	.
.	.	8EJ	.	.	.
.	.	2F#i	.	.	.
=44	=44	=44	=44	=44	=44
1GG	0D	0G	1B-y	1d]	0r
[1GG	.	.	[1B-y	2r	.
.	.	.	.	2d	.
=45	=45	=45	=45	=45	=45
1GG]	2.G	2r	1B-]	2d	0g
.	.	1G	.	2d	.
.	4F	.	.	.	.
2.C	2E	.	2.c	1e	.
.	2E	[2c	.	.	.
4BB-y	.	.	4c	.	.
=46	=46	=46	=46	=46	=46
2AA	2.A	4c]	2c	1e	2.cc
.	.	4B-y	.	.	.
2AA	.	2A	2c	.	.
.	4G	.	.	.	4b-y
1D	4F	2A	1d	1f	2a
.	4E	.	.	.	.
.	2F	[2d	.	.	2a
=47	=47	=47	=47	=47	=47
0GG	0G	2d]	0B-y	1d	1b-y
.	.	2G	.	.	.
.	.	2r	.	2r	2g
.	.	2d	.	2g	2b-y
=48	=48	=48	=48	=48	=48
0r	0r	2e-X	0r	2g	2b-y
.	.	2d	.	2f	2b-y
.	.	2e-i	.	2g	2b-y
.	.	2c	.	2e	2a
=49	=49	=49	=49	=49	=49
2r	2r	1B-y	2r	2d	1b-y
2BB-y	2F	.	2B-y	2d	.
2E-X	2G	1r	2B-y	2e-X	2r
2D	2F	.	2B-y	2f	2b-y
=50	=50	=50	=50	=50	=50
2E-i	2G	1r	2B-y	2e-i	2b-y
2C	2E-X	.	2A	2e-i	2cc
2BB-y	2F	2r	2B-y	2d	2.dd
2F	2D	2A	2d	2f	.
.	.	.	.	.	4cc
=51	=51	=51	=51	=51	=51
2G	2G	2B-y	2d	2d	4b-y
.	.	.	.	.	4a
2E	2C	2c	2c	2e	2.g
1D	1F	1A	1d	4f	.
.	.	.	.	4e	8f#iL
.	.	.	.	.	8eJ
.	.	.	.	4d	2f#i
.	.	.	.	4c	.
=52	=52	=52	=52	=52	=52
0GG	1D	1G	[0d	1B-y	[0g
.	1r	1r	.	2r	.
.	.	.	.	2G	.
=53	=53	=53	=53	=53	=53
2r	1G	1B-y	1d]	2G	0g]
2GG	.	.	.	2G	.
2GG	2G	2B-y	2r	1d	.
2GG	2G	2B-y	2d	.	.
=54	=54	=54	=54	=54	=54
1D	1.F	1.A	2d	0r	0r
.	.	.	2d	.	.
1r	.	.	[1c	.	.
.	2E	2G	.	.	.
=55	=55	=55	=55	=55	=55
0r	2F	2A	2c]	0r	0r
.	2D	2F	2B-y	.	.
.	2E	2G	2c	.	.
.	2F#i	2D	2A	.	.
=56	=56	=56	=56	=56	=56
2r	1G	2.d	2.B-y	1r	1g
2GG	.	.	.	.	.
.	.	4c	4c	.	.
2GG	1D	4B-y	1d	1d	2g
.	.	4A	.	.	.
2GG	.	[2d	.	.	2g
=57	=57	=57	=57	=57	=57
2.D	0r	2d]	1A	2d	1.f
.	.	4c	.	2d	.
4E	.	4B-y	.	.	.
2F	.	2A	1r	[1c	.
2C	.	4r	.	.	2e
.	.	4G	.	.	.
=58	=58	=58	=58	=58	=58
2F	0r	2A	0r	2c]	2f
2G	.	2B-y	.	2B-y	2d
2C	.	2G	.	2c	2e
2F	.	2A	.	2A	2f
=59	=59	=59	=59	=59	=59
1E-X	1r	1G	1r	2B-y	1g
.	.	.	.	2c	.
[1D	1D	1A	1A	1d	[1f
=60	=60	=60	=60	=60	=60
1D]	1F	2r	1d	1A	1f]
.	.	2D	.	.	.
1r	1D	2F	1d	1f	1r
.	.	2D	.	.	.
=61	=61	=61	=61	=61	=61
0AA	0A	2E	0c	1e	0a
.	.	1E	.	.	.
.	.	.	.	1c	.
.	.	[2F	.	.	.
=62	=62	=62	=62	=62	=62
1BB-y	1r	2F]	1r	0d	1f
.	.	2D	.	.	.
1GG	1D	1G	1B-y	.	1g
=63	=63	=63	=63	=63	=63
0D	1F	2r	1A	1r	0a
.	.	2D	.	.	.
.	1D	2F	1d	1f	.
.	.	2D	.	.	.
=64	=64	=64	=64	=64	=64
0AA	0A	0E	0c	1e	1r
.	.	.	.	1c	1a
=65	=65	=65	=65	=65	=65
1BB-y	2r	1r	1r	0d	1f
.	2D	.	.	.	.
1GG	2G	1D	1B-y	.	1g
.	2G	.	.	.	.
=66	=66	=66	=66	=66	=66
1.D	2.F	1.d	2A	1f	1.a
.	.	.	2.F	.	.
.	4G	.	.	.	.
.	2A	.	.	2.f	.
.	.	.	4G	.	.
2D	2F	2d	2A	.	2a
.	.	.	.	4e	.
=67	=67	=67	=67	=67	=67
2G	2.G	2d	4B-y	4d	2g
.	.	.	4c	4c	.
2G	.	2d	4d	2.d	2.b-y
.	8FL	.	4e	.	.
.	8EJ	.	.	.	.
2F	1D	2.d	2.f	.	.
.	.	.	.	4c	4a
2F	.	.	.	2A	2r
.	.	4c	4e	.	.
=68	=68	=68	=68	=68	=68
2.G	1GG	2.B-y	4d	2.B-y	4a
.	.	.	4c	.	4g
.	.	.	2.d	.	1g
8FL	.	8AL	.	4c	.
8EJ	.	8GJ	.	.	.
1D	1r	1A	.	1d	.
.	.	.	4c	.	.
.	.	.	2A	.	2f#i
=69	=69	=69	=69	=69	=69
0GG	1r	[0Gl	2B-y	1d	[0gl
.	.	.	2G	.	.
.	1D	.	2d	2r	.
.	.	.	2d	2B-y	.
=70	=70	=70	=70	=70	=70
2r	2G	0G_	4B-y	2d	0g_
.	.	.	4c	.	.
2GG	2G	.	4d	2d	.
.	.	.	4B-y	.	.
2C	2E	.	4c	2e-i	.
.	.	.	4d	.	.
2C	[2G	.	[2e-i	2c	.
=71	=71	=71	=71	=71	=71
2BB-y	4G]	0G_	4e-]	1d	0g_
.	4F	.	4d	.	.
2BB-y	2D	.	1d	.	.
1C	1E	.	.	2.G	.
.	.	.	2c	.	.
.	.	.	.	4A	.
=72	=72	=72	=72	=72	=72
00GGl	00Dl	00G]	00dl	00B-yl	00g]
==	==	==	==	==	==
*-	*-	*-	*-	*-	*-
!!!system-decoration: [*]
!!!RDF**kern: i = editorial accidental
!!!RDF**kern: l = terminal long
!!!ENC: Benjamin Ory
!!!END: 2021/2/1
!!!EED: Benjamin Ory
!!!EEV: 2021/04/29
!!!YEC: Copyright 2021 Benjamin Ory, All Rights Reserved
!!!ONB: Translated from MusicXML on 2021/04/29
